pages/features/group-users.svg

<svg width="105" height="105" viewBox="0 0 105 105" xmlns="http://www.w3.org/2000/svg"><g transform="translate(0 0)" fill="none"><circle fill="#0070D3" cx="52.5" cy="52.5" r="52.5"/><path d="M64.978 71.258c0-4.492-4.374-6.778-8.634-8.614-4.246-1.828-5.602-3.368-5.602-6.668 0-1.978 1.296-1.334 1.864-4.962.24-1.504 1.384-.024 1.604-3.458 0-1.368-.626-1.708-.626-1.708s.318-2.026.442-3.586c.128-1.634-.796-5.12-4.602-6.19-.664-.682-1.114-1.764.934-2.848-4.48-.208-5.522 2.136-7.908 3.86-2.03 1.512-2.578 3.906-2.48 5.18.13 1.56.446 3.586.446 3.586s-.628.34-.628 1.708c.22 3.436 1.368 1.954 1.606 3.458.568 3.628 1.866 2.984 1.866 4.962 0 3.3-.424 4.42-4.672 6.248-4.262 1.834-5.588 4.774-5.566 9.032.006 1.274-.022 1.742-.022 1.742h32s-.022-.468-.022-1.742zm5.078-11.528c-2.27-.914-3.21-2.004-3.21-4.132 0-1.282.836-.864 1.204-3.206.154-.968.894-.016 1.036-2.23 0-.882-.404-1.102-.404-1.102s.206-1.312.286-2.318c.1-1.254-.728-4.494-4.536-4.494-3.806 0-4.636 3.24-4.538 4.494.084 1.004.288 2.318.288 2.318s-.404.218-.404 1.102c.142 2.214.882 1.262 1.036 2.23.368 2.344 1.204 1.926 1.204 3.206 0 2.128-.876 3.124-3.618 4.304l-.366.204c3.28 1.424 8.452 3.882 9.676 8.894h5.29v-4.636c0-2-.546-3.668-2.944-4.634z" fill="#fff"/></g></svg>

<?xml version="1.0" encoding="UTF-8" standalone="no"?>
<svg width="105px" height="105px" viewBox="0 0 105 105" version="1.1" xmlns="http://www.w3.org/2000/svg" xmlns:xlink="http://www.w3.org/1999/xlink">
    <!-- Generator: Sketch 3.7.2 (28276) - http://www.bohemiancoding.com/sketch -->
    <title>Group 17</title>
    <desc>Created with Sketch.</desc>
    <defs></defs>
    <g id="Desktop-design" stroke="none" stroke-width="1" fill="none" fill-rule="evenodd">
        <g id="Features" transform="translate(-748.000000, -6801.000000)">
            <g id="Group-10" transform="translate(0.000000, 6464.000000)">
                <g id="Group-17" transform="translate(748.000000, 337.000000)">
                    <circle id="Oval-356-Copy" fill="#0070D3" cx="52.5" cy="52.5" r="52.5"></circle>
                    <path d="M64.978,71.2579994 C64.978,66.766 60.604,64.48 56.344,62.644 C52.098002,60.816 50.742,59.276 50.742,55.975998 C50.742,53.997998 52.038,54.641998 52.606,51.014 C52.846,49.51 53.99,50.99 54.21,47.556 C54.21,46.188 53.584,45.848 53.584,45.848 C53.584,45.848 53.902,43.822 54.026,42.262 C54.154,40.628 53.23,37.142 49.424,36.072 C48.76,35.39 48.31,34.308 50.358,33.224 C45.878,33.016 44.836,35.36 42.45,37.084 C40.42,38.596 39.872,40.99 39.97,42.264 C40.1,43.824 40.416,45.85 40.416,45.85 C40.416,45.85 39.788,46.19 39.788,47.558 C40.008,50.994 41.156,49.512 41.394,51.016 C41.962,54.644 43.26,54 43.26,55.978 C43.26,59.278 42.836,60.398 38.588,62.226 C34.326,64.06 33,67 33.022,71.2579994 C33.028,72.5320014 33,73 33,73 L65,73 C65,73 64.978,72.5320014 64.978,71.2579994 L64.978,71.2579994 Z M70.056,59.73 C67.786,58.816 66.846,57.726 66.846,55.598 C66.846,54.316 67.682,54.734 68.05,52.392 C68.204,51.424 68.944,52.376 69.086,50.162 C69.086,49.28 68.682,49.06 68.682,49.06 C68.682,49.06 68.888,47.748 68.968,46.742 C69.068,45.488 68.24,42.248 64.432,42.248 C60.626,42.248 59.796,45.488 59.894,46.742 C59.978,47.746 60.182,49.06 60.182,49.06 C60.182,49.06 59.778,49.278 59.778,50.162 C59.92,52.376 60.66,51.424 60.814,52.392 C61.182,54.736 62.018,54.318 62.018,55.598 C62.018,57.726 61.142,58.722 58.4,59.902 C58.262,59.96 58.16,60.038 58.034,60.106 C61.314,61.53 66.486,63.988 67.71,69 L73,69 L73,64.364 C73,62.364 72.454,60.696 70.056,59.73 L70.056,59.73 Z" id="Page-1" fill="#FFFFFF"></path>
                </g>
            </g>
        </g>
    </g>
</svg>
